X: 1
T: Zorro da Crow
C: Debbie Scott 2011-06-24
R: reel
Z: 2018 John Chambers <jc:trillian.mit.edu>
F: http://ramshaw.info/slowjamtunes/HTML/Tunes_Z/Zorro_da_Crow.html
M: C|
L: 1/8
K: Am
CB, !segno!|\
"Am"A,2(AE) "G"GEDC | "Am"A,EAE "G"G2(EG) |\
"Am"AcBG "G"A(GED) | "Dm7"CDEC "Em7"D2 :|
|: (EG) |\
"Am"AcBG "G"A2cA- | "Am"AecA "G"^cdB(G |\
"Am"Bc)BG "G"A(GED) |1 "Dm7"CDEC "Em7"D2 :|
[2 [M:3/4] "D"(3EDC "Em"(3DCB, "F"C/(B,/A,/"_d.S."G,/) |]
